X: 20
T:Pray Goody. ST.20
M:4/4
L:1/8
Q:200
S:Annonymous Staffordshire MS, Early 19thC.
R:Country-dance
O:England
A:Staffordshire
Z:vmp.Tim Willets
K:G
d4 cBAG|BAGF GBdf|g2fe dBAG|gdcB (B2A2)|!
d4 cBAG|BAGF GBdf|{ef}g2fe dBec|BdcAG2z2||!
g2d2e2d2|gBBB(c2B2)|gddd gddd| gdcB "pa"B2"pa"A2|!
d4cBAG|BAGF GBdf|g2fe dBAG|gdcB (B2A2)|!
d4 cBAG|BAGF GBdf|{ef}g2fe dBec|BdcAG4|]
